X: 1
T: Shibolet ba-sade (Sheaves in the Field)
O: Israel
Z: 2003 John Chambers <jc@trillian.mit.edu> http://trillian.mit.edu/~jc/music/
M: 2/4
L: 1/8
K: Dm
|: "Dm"FA2A | "Gm"GFG2 | "Dm"F/G/A- Ac | "Gm"G2G2 |
w: Shi-bo-let ba-sa-de, ko-r'-a* ba-ru-ach,
w: U-ve-mer-hav ha-rim, yom k'-far* ya-fu-ach,
| "Dm"FG2F | "Am"E>F EC | "Dm"D4- | D2 z2 :|
w: me-'o-mes ga-ri-nim ki rav,
w: ha-she-mesh ke-tem ve za-hav.
|| "F"Ac2c | c2c2 | "Gm"c>d Bc | AB AG |
w: U-ru, hoy, u-ru, shu-*ru b'-ney k'fa-reim, ka-
| "Dm"FA2A | "Gm"G2A2 | "Dm"F2G2 | "Gm"FEFE |
w: ma hen ba-shla k'far 'al pney ha-ka-rim,
| "Dm"D/C/D2 C | DC D2 | "Gm"zF2E | DG "Am"EC | "Dm"D4- | D2 z2 |]
w: ki-ts'-ru shil-chu ma-gal, et re-shit* ha-ka-tsir.

